;FLAVOR:Marlin
;TIME:3644
;Filament used: 2.31878m
;Layer height: 0.2
;MINX:123
;MINY:119.042
;MINZ:0.2
;MAXX:177
;MAXY:180.958
;MAXZ:15
;Generated with Cura_SteamEngine 4.4.1
M140 S60
M105
M190 S60
M104 S200
M105
M109 S200
M82 ;absolute extrusion mode
M201 X500.00 Y500.00 Z100.00 E5000.00 ;Setup machine max acceleration
M203 X500.00 Y500.00 Z10.00 E50.00 ;Setup machine max feedrate
M204 P500.00 R1000.00 T500.00 ;Setup Print/Retract/Travel acceleration
M205 X8.00 Y8.00 Z0.40 E5.00 ;Setup Jerk
M220 S100 ;Reset Feedrate
M221 S100 ;Reset Flowrate

G28 ;Home

G92 E0 ;Reset Extruder
G1 Z2.0 F3000 ;Move Z Axis up
G1 X10.1 Y20 Z0.28 F5000.0 ;Move to start position
G1 X10.1 Y200.0 Z0.28 F1500.0 E15 ;Draw the first line
G1 X10.4 Y200.0 Z0.28 F5000.0 ;Move to side a little
G1 X10.4 Y20 Z0.28 F1500.0 E30 ;Draw the second line
G92 E0 ;Reset Extruder
G1 Z2.0 F3000 ;Move Z Axis up

G92 E0
G92 E0
G1 F1500 E-6.5
;LAYER_COUNT:75
;LAYER:0
M107
G0 F6000 X126.198 Y122.306 Z0.2
;TYPE:SKIRT
G1 F1500 E0
G1 F1200 X126.886 Y121.669 E0.03119
G1 X127.626 Y121.093 E0.06237
G1 X128.412 Y120.581 E0.09357
G1 X129.239 Y120.139 E0.12476
G1 X130.101 Y119.769 E0.15596
G1 X130.991 Y119.473 E0.18716
G1 X131.903 Y119.255 E0.21835
G1 X132.83 Y119.114 E0.24953
G1 X133.701 Y119.055 E0.27857
G1 X134.022 Y119.046 E0.28925
G1 X134.33 Y119.042 E0.29949
G1 X141.286 Y119.042 E0.53085
G1 X141.443 Y119.043 E0.53607
G1 X142.142 Y119.053 E0.55933
G1 X142.763 Y119.08 E0.58
G1 X143.626 Y119.141 E0.60877
G1 X146.226 Y119.288 E0.69539
G1 X148.721 Y119.36 E0.77841
G1 X151.246 Y119.36 E0.86239
G1 X153.796 Y119.289 E0.94724
G1 X156.334 Y119.145 E1.03179
G1 X157.201 Y119.081 E1.0607
G1 X157.701 Y119.055 E1.07735
G1 X158.021 Y119.046 E1.088
G1 X158.33 Y119.042 E1.09828
G1 X165.286 Y119.042 E1.32964
G1 X165.446 Y119.043 E1.33496
G1 X166.133 Y119.053 E1.35781
G1 X167.069 Y119.107 E1.38899
G1 X167.998 Y119.24 E1.42021
G1 X168.911 Y119.452 E1.45138
G1 X169.804 Y119.741 E1.4826
G1 X170.668 Y120.104 E1.51377
G1 X171.498 Y120.54 E1.54495
G1 X172.289 Y121.046 E1.57618
G1 X173.033 Y121.616 E1.60736
G1 X173.726 Y122.248 E1.63855
G1 X174.362 Y122.937 E1.66974
G1 X174.938 Y123.678 E1.70095
G1 X175.448 Y124.465 E1.73215
G1 X175.89 Y125.292 E1.76333
G1 X176.259 Y126.154 E1.79452
G1 X176.554 Y127.044 E1.82571
G1 X176.772 Y127.957 E1.85693
G1 X176.911 Y128.884 E1.8881
G1 X176.97 Y129.789 E1.91827
G1 X176.994 Y130.793 E1.95167
G1 X176.997 Y131.021 E1.95925
G1 X177 Y131.965 E1.99065
G1 X177 Y169.222 E3.22982
G1 X176.999 Y169.373 E3.23485
G1 X176.989 Y170.1 E3.25903
G1 X176.936 Y171.037 E3.29024
G1 X176.804 Y171.965 E3.32142
G1 X176.593 Y172.879 E3.35262
G1 X176.304 Y173.771 E3.38381
G1 X175.941 Y174.636 E3.41501
G1 X175.506 Y175.467 E3.4462
G1 X175.001 Y176.257 E3.47739
G1 X174.431 Y177.002 E3.50859
G1 X173.8 Y177.696 E3.53978
G1 X173.111 Y178.333 E3.57099
G1 X172.371 Y178.909 E3.60218
G1 X171.585 Y179.42 E3.63337
G1 X170.758 Y179.862 E3.66455
G1 X169.896 Y180.232 E3.69575
G1 X169.006 Y180.527 E3.72694
G1 X168.094 Y180.746 E3.75813
G1 X167.167 Y180.886 E3.78932
G1 X166.299 Y180.945 E3.81825
G1 X165.979 Y180.954 E3.8289
G1 X165.67 Y180.958 E3.83918
G1 X158.707 Y180.958 E4.07077
G1 X158.551 Y180.957 E4.07596
G1 X157.846 Y180.947 E4.09941
G1 X157.232 Y180.921 E4.11985
G1 X156.308 Y180.856 E4.15066
G1 X153.768 Y180.712 E4.23527
G1 X151.218 Y180.641 E4.32012
G1 X148.693 Y180.641 E4.4041
G1 X146.198 Y180.713 E4.48712
G1 X143.614 Y180.859 E4.5732
G1 X142.796 Y180.919 E4.60048
G1 X142.299 Y180.945 E4.61703
G1 X141.979 Y180.954 E4.62768
G1 X141.67 Y180.958 E4.63796
G1 X134.707 Y180.958 E4.86955
G1 X134.549 Y180.957 E4.8748
G1 X133.851 Y180.947 E4.89802
G1 X132.915 Y180.893 E4.92921
G1 X131.987 Y180.761 E4.96038
G1 X131.073 Y180.549 E4.99159
G1 X130.181 Y180.26 E5.02278
G1 X129.316 Y179.897 E5.05398
G1 X128.486 Y179.461 E5.08516
G1 X127.695 Y178.956 E5.11637
G1 X126.951 Y178.385 E5.14757
G1 X126.258 Y177.753 E5.17876
G1 X125.621 Y177.065 E5.20995
G1 X125.046 Y176.324 E5.24114
G1 X124.535 Y175.538 E5.27232
G1 X124.093 Y174.71 E5.30354
G1 X123.724 Y173.848 E5.33473
G1 X123.429 Y172.958 E5.36591
G1 X123.211 Y172.046 E5.3971
G1 X123.071 Y171.118 E5.42831
G1 X123.013 Y170.246 E5.45738
G1 X123.004 Y169.914 E5.46843
G1 X123 Y169.616 E5.47834
G1 X123 Y130.716 E6.77216
G1 X123.001 Y130.567 E6.77712
G1 X123.01 Y129.902 E6.79924
G1 X123.063 Y128.966 E6.83042
G1 X123.195 Y128.037 E6.86163
G1 X123.406 Y127.123 E6.89283
G1 X123.694 Y126.231 E6.924
G1 X124.057 Y125.366 E6.9552
G1 X124.492 Y124.535 E6.9864
G1 X124.996 Y123.745 E7.01757
G1 X125.566 Y123 E7.04877
G1 X126.198 Y122.306 E7.07999
G0 F6000 X126.589 Y122.481
G1 F1200 X127.274 Y121.865 E7.11063
G1 X128.01 Y121.312 E7.14124
G1 X128.791 Y120.824 E7.17188
G1 X129.611 Y120.406 E7.20249
G1 X130.465 Y120.061 E7.23312
G1 X131.345 Y119.791 E7.26374
G1 X132.245 Y119.599 E7.29435
G1 X133.159 Y119.485 E7.32498
G1 X133.712 Y119.455 E7.3434
G1 X134.033 Y119.446 E7.35408
G1 X134.33 Y119.442 E7.36396
G1 X141.286 Y119.442 E7.59532
G1 X141.438 Y119.443 E7.60037
G1 X142.137 Y119.453 E7.62362
G1 X142.735 Y119.479 E7.64353
G1 X143.575 Y119.539 E7.67154
G1 X146.193 Y119.687 E7.75876
G1 X148.745 Y119.76 E7.84367
G1 X151.257 Y119.76 E7.92722
G1 X153.794 Y119.689 E8.01163
G1 X156.386 Y119.542 E8.09798
G1 X157.23 Y119.48 E8.12613
G1 X157.712 Y119.455 E8.14218
G1 X158.032 Y119.446 E8.15283
G1 X158.33 Y119.442 E8.16274
G1 X165.286 Y119.442 E8.3941
G1 X165.44 Y119.443 E8.39922
G1 X166.127 Y119.453 E8.42208
G1 X167.046 Y119.506 E8.45269
G1 X167.957 Y119.639 E8.48331
G1 X168.853 Y119.851 E8.51394
G1 X169.728 Y120.139 E8.54458
G1 X170.574 Y120.502 E8.57519
G1 X171.385 Y120.938 E8.60582
G1 X172.155 Y121.442 E8.63643
G1 X172.879 Y122.011 E8.66706
G1 X173.551 Y122.64 E8.69767
G1 X174.166 Y123.326 E8.72831
G1 X174.718 Y124.062 E8.75891
G1 X175.205 Y124.843 E8.78952
G1 X175.622 Y125.664 E8.82015
G1 X175.967 Y126.518 E8.85079
G1 X176.235 Y127.398 E8.88138
G1 X176.427 Y128.299 E8.91202
G1 X176.54 Y129.213 E8.94265
G1 X176.57 Y129.799 E8.96217
G1 X176.594 Y130.803 E8.99557
G1 X176.597 Y131.022 E9.00286
G1 X176.6 Y131.966 E9.03425
G1 X176.6 Y169.222 E10.27339
G1 X176.599 Y169.368 E10.27825
G1 X176.589 Y170.095 E10.30243
G1 X176.536 Y171.014 E10.33305
G1 X176.404 Y171.925 E10.36367
G1 X176.193 Y172.821 E10.39428
G1 X175.906 Y173.696 E10.42491
G1 X175.543 Y174.542 E10.45553
G1 X175.109 Y175.354 E10.48615
G1 X174.605 Y176.125 E10.51679
G1 X174.037 Y176.849 E10.5474
G1 X173.408 Y177.521 E10.57801
G1 X172.723 Y178.136 E10.60863
G1 X171.987 Y178.689 E10.63925
G1 X171.206 Y179.177 E10.66988
G1 X170.386 Y179.595 E10.70049
G1 X169.532 Y179.94 E10.73112
G1 X168.652 Y180.209 E10.76173
G1 X167.751 Y180.402 E10.79238
G1 X166.838 Y180.515 E10.82298
G1 X166.288 Y180.545 E10.8413
G1 X165.968 Y180.554 E10.85194
G1 X165.67 Y180.558 E10.86186
G1 X158.707 Y180.558 E11.09345
G1 X158.557 Y180.557 E11.09843
G1 X157.852 Y180.547 E11.12189
G1 X157.26 Y180.522 E11.14159
G1 X156.362 Y180.459 E11.17153
G1 X153.766 Y180.312 E11.25802
G1 X151.229 Y180.241 E11.34243
G1 X148.717 Y180.241 E11.42598
G1 X146.165 Y180.314 E11.51089
G1 X143.621 Y180.458 E11.59564
G1 X142.767 Y180.521 E11.62412
G1 X142.288 Y180.545 E11.64008
G1 X141.968 Y180.554 E11.65072
G1 X141.67 Y180.558 E11.66064
G1 X134.707 Y180.558 E11.89223
G1 X134.555 Y180.557 E11.89728
G1 X133.857 Y180.547 E11.9205
G1 X132.938 Y180.494 E11.95112
G1 X132.027 Y180.361 E11.98174
G1 X131.131 Y180.15 E12.01235
G1 X130.257 Y179.862 E12.04296
G1 X129.41 Y179.499 E12.07361
G1 X128.599 Y179.064 E12.10422
G1 X127.829 Y178.56 E12.13483
G1 X127.105 Y177.991 E12.16546
G1 X126.433 Y177.361 E12.19609
G1 X125.818 Y176.676 E12.22671
G1 X125.265 Y175.94 E12.25733
G1 X124.778 Y175.159 E12.28794
G1 X124.361 Y174.338 E12.31857
G1 X124.016 Y173.484 E12.3492
G1 X123.747 Y172.604 E12.37981
G1 X123.555 Y171.703 E12.41045
G1 X123.442 Y170.79 E12.44105
G1 X123.413 Y170.235 E12.45953
G1 X123.404 Y169.903 E12.47058
G1 X123.4 Y169.616 E12.48013
G1 X123.4 Y130.716 E13.77394
G1 X123.401 Y130.573 E13.7787
G1 X123.41 Y129.908 E13.80082
G1 X123.462 Y128.988 E13.83147
G1 X123.594 Y128.077 E13.86209
G1 X123.805 Y127.181 E13.8927
G1 X124.092 Y126.306 E13.92333
G1 X124.455 Y125.46 E13.95395
G1 X124.889 Y124.648 E13.98457
G1 X125.392 Y123.877 E14.01519
G1 X125.961 Y123.153 E14.04582
G1 X126.589 Y122.481 E14.07641
G0 F6000 X126.981 Y122.659
G1 F1200 X127.662 Y122.066 E14.10644
G1 X128.394 Y121.536 E14.1365
G1 X129.169 Y121.073 E14.16653
G1 X129.982 Y120.68 E14.19656
G1 X130.827 Y120.36 E14.22661
G1 X131.696 Y120.117 E14.25663
G1 X132.584 Y119.951 E14.28667
G1 X133.723 Y119.855 E14.32469
G1 X134.044 Y119.846 E14.33537
G1 X134.33 Y119.842 E14.34488
G1 X141.286 Y119.842 E14.57624
G1 X141.432 Y119.843 E14.5811
G1 X142.131 Y119.853 E14.60435
G1 X142.706 Y119.878 E14.62349
G1 X143.522 Y119.936 E14.6507
G1 X146.194 Y120.087 E14.73971
G1 X148.733 Y120.16 E14.8242
G1 X151.268 Y120.16 E14.90851
G1 X153.794 Y120.089 E14.99256
G1 X156.44 Y119.94 E15.0807
G1 X157.26 Y119.879 E15.10805
G1 X157.723 Y119.855 E15.12347
G1 X158.043 Y119.846 E15.13412
G1 X158.33 Y119.842 E15.14367
G1 X165.286 Y119.842 E15.37502
G1 X165.434 Y119.843 E15.37995
G1 X166.121 Y119.853 E15.4028
G1 X167.023 Y119.906 E15.43285
G1 X167.916 Y120.039 E15.46288
G1 X168.794 Y120.25 E15.49291
G1 X169.65 Y120.538 E15.52295
G1 X170.477 Y120.901 E15.55299
G1 X171.269 Y121.335 E15.58303
G1 X172.02 Y121.837 E15.61307
G1 X172.723 Y122.405 E15.64313
G1 X173.372 Y123.031 E15.67313
G1 X173.964 Y123.714 E15.70319
G1 X174.494 Y124.445 E15.73322
G1 X174.956 Y125.221 E15.76326
G1 X175.348 Y126.034 E15.79328
G1 X175.667 Y126.879 E15.82332
G1 X175.91 Y127.749 E15.85336
G1 X176.074 Y128.637 E15.8834
G1 X176.17 Y129.808 E15.92247
G1 X176.194 Y130.812 E15.95588
G1 X176.197 Y131.024 E15.96293
G1 X176.2 Y131.968 E15.99433
G1 X176.2 Y169.222 E17.2334
G1 X176.199 Y169.362 E17.23806
G1 X176.189 Y170.089 E17.26224
G1 X176.137 Y170.991 E17.29229
G1 X176.005 Y171.884 E17.32231
G1 X175.794 Y172.763 E17.35238
G1 X175.507 Y173.619 E17.38241
G1 X175.145 Y174.446 E17.41243
G1 X174.711 Y175.238 E17.44247
G1 X174.209 Y175.989 E17.47252
G1 X173.643 Y176.692 E17.50253
G1 X173.016 Y177.343 E17.5326
G1 X172.335 Y177.935 E17.56261
G1 X171.604 Y178.465 E17.59264
G1 X170.828 Y178.928 E17.62269
G1 X170.015 Y179.321 E17.65273
G1 X169.17 Y179.641 E17.68278
G1 X168.301 Y179.884 E17.71279
G1 X167.413 Y180.049 E17.74283
G1 X166.277 Y180.145 E17.78075
G1 X165.957 Y180.154 E17.7914
G1 X165.67 Y180.158 E17.80095
G1 X158.707 Y180.158 E18.03254
G1 X158.562 Y180.157 E18.03736
G1 X157.857 Y180.147 E18.06081
G1 X157.288 Y180.123 E18.07975
G1 X156.411 Y180.061 E18.10899
G1 X153.766 Y179.912 E18.19711
G1 X151.24 Y179.841 E18.28115
G1 X148.705 Y179.841 E18.36547
G1 X146.166 Y179.914 E18.44995
G1 X143.568 Y180.061 E18.5365
G1 X142.737 Y180.122 E18.56421
G1 X142.277 Y180.145 E18.57953
G1 X141.957 Y180.154 E18.59018
G1 X141.67 Y180.158 E18.59973
G1 X134.707 Y180.158 E18.83132
G1 X134.561 Y180.157 E18.83617
G1 X133.863 Y180.147 E18.85939
G1 X132.961 Y180.094 E18.88944
G1 X132.068 Y179.962 E18.91947
G1 X131.19 Y179.751 E18.9495
G1 X130.334 Y179.463 E18.97954
G1 X129.507 Y179.101 E19.00956
G1 X128.715 Y178.666 E19.03962
G1 X127.964 Y178.164 E19.06966
G1 X127.261 Y177.597 E19.0997
G1 X126.611 Y176.97 E19.12974
G1 X126.019 Y176.288 E19.15978
G1 X125.489 Y175.557 E19.18981
G1 X125.027 Y174.781 E19.21985
G1 X124.634 Y173.968 E19.24988
G1 X124.316 Y173.123 E19.27991
G1 X124.073 Y172.253 E19.30995
G1 X123.908 Y171.365 E19.33999
G1 X123.813 Y170.224 E19.37808
G1 X123.804 Y169.892 E19.38912
G1 X123.8 Y169.616 E19.3983
G1 X123.8 Y130.716 E20.69212
G1 X123.801 Y130.578 E20.69671
G1 X123.81 Y129.913 E20.71883
G1 X123.862 Y129.011 E20.74888
G1 X123.994 Y128.118 E20.77891
G1 X124.204 Y127.24 E20.80893
G1 X124.491 Y126.383 E20.83899
G1 X124.853 Y125.556 E20.86902
G1 X125.286 Y124.764 E20.89904
G1 X125.788 Y124.013 E20.92908
G1 X126.355 Y123.309 E20.95915
G1 X126.981 Y122.659 E20.98916
G1 F1500 E14.48916
;MESH:support_1_matrix_sans_base_repaired_by_netfabb.stl
G0 F6000 X134.414 Y129.377
G0 X134.414 Y130.456
G0 X135.182 Y168.776
G0 X140.818 Y168.776
G0 X140.818 Y165.776
G0 X158.428 Y166.53
G0 X159 Y168.958
;TYPE:WALL-INNER
G1 F1500 E20.98916
G1 F1200 X159 Y165.958 E21.08894
G1 X141 Y165.958 E21.68763
G1 X141 Y168.958 E21.78741
G1 X135 Y168.958 E21.98697
G1 X135 Y131.042 E23.24806
G1 X140.996 Y131.042 E23.44749
G1 X141 Y132.06 E23.48135
G1 X141.001 Y135.959 E23.61103
G1 X159 Y135.959 E24.20968
G1 X159 Y131.042 E24.37322
G1 X164.996 Y131.042 E24.57265
G1 X165 Y132.06 E24.6065
G1 X165 Y168.958 E25.83374
G1 X159 Y168.958 E26.0333
G0 F6000 X158.6 Y169.358
G1 F1200 X158.6 Y166.358 E26.13308
G1 X141.4 Y166.358 E26.70515
G1 X141.4 Y169.358 E26.80493
G1 X134.6 Y169.358 E27.0311
G1 X134.6 Y130.642 E28.3188
G1 X141.395 Y130.642 E28.5448
G1 X141.4 Y132.06 E28.59197
G1 X141.401 Y135.559 E28.70834
G1 X158.6 Y135.559 E29.28038
G1 X158.6 Y130.642 E29.44392
G1 X165.395 Y130.642 E29.66993
G1 X165.4 Y132.06 E29.71709
G1 X165.4 Y169.358 E30.95763
G1 X158.6 Y169.358 E31.1838
G0 F6000 X158.2 Y169.758
;TYPE:WALL-OUTER
G1 F1200 X158.2 Y166.758 E31.28358
G1 X141.8 Y166.758 E31.82904
G1 X141.8 Y169.758 E31.92882
G1 X134.2 Y169.758 E32.1816
G1 X134.2 Y130.242 E33.49591
G1 X141.794 Y130.242 E33.74849
G1 X141.8 Y132.06 E33.80895
G1 X141.801 Y135.159 E33.91203
G1 X158.2 Y135.159 E34.45746
G1 X158.2 Y130.242 E34.621
G1 X165.794 Y130.242 E34.87358
G1 X165.8 Y132.06 E34.93404
G1 X165.8 Y169.758 E36.18788
G1 X158.2 Y169.758 E36.44066
G0 F6000 X158.47 Y169.488
G0 X159.11 Y168.568
G0 X159.39 Y168.568
;TYPE:SKIN
G1 F1200 X159.39 Y165.568 E36.54044
G1 X140.61 Y165.568 E37.16507
G1 X140.61 Y168.568 E37.26485
G1 X135.39 Y168.568 E37.43847
G1 X135.39 Y131.432 E38.67361
G1 X140.608 Y131.432 E38.84716
G1 X140.61 Y132.062 E38.86812
G1 X140.613 Y136.349 E39.01071
G1 X159.39 Y136.349 E39.63523
G1 X159.39 Y131.432 E39.79877
G1 X164.608 Y131.432 E39.97232
G1 X164.61 Y132.062 E39.99328
G1 X164.61 Y168.568 E41.20747
G1 X159.39 Y168.568 E41.38109
G0 F6000 X159.11 Y168.568
G0 X158.428 Y166.53
G0 X141.572 Y166.53
G0 X141.559 Y168.781
G0 X136.163 Y168.848
G0 X136.163 Y168.407
G1 F1200 X135.548 Y167.792 E41.41002
G0 F6000 X135.548 Y167.227
G1 F1200 X136.728 Y168.407 E41.46552
G0 F6000 X137.294 Y168.407
G1 F1200 X135.548 Y166.661 E41.54765
G0 F6000 X135.548 Y166.095
G1 F1200 X137.86 Y168.407 E41.6564
G0 F6000 X138.426 Y168.407
G1 F1200 X135.548 Y165.53 E41.79174
G0 F6000 X135.548 Y164.964
G1 F1200 X138.991 Y168.407 E41.95369
G0 F6000 X139.557 Y168.407
G1 F1200 X135.548 Y164.398 E42.14226
G0 F6000 X135.548 Y163.833
G1 F1200 X140.123 Y168.407 E42.35743
G0 F6000 X140.45 Y168.169
G1 F1200 X135.548 Y163.267 E42.58801
G0 F6000 X135.548 Y162.701
G1 F1200 X140.45 Y167.603 E42.81858
G0 F6000 X140.45 Y167.037
G1 F1200 X135.548 Y162.136 E43.04914
G0 F6000 X135.548 Y161.57
G1 F1200 X140.45 Y166.472 E43.27971
G0 F6000 X140.45 Y165.906
G1 F1200 X135.548 Y161.004 E43.51029
G0 F6000 X135.548 Y160.438
G1 F1200 X140.516 Y165.407 E43.74399
G0 F6000 X141.082 Y165.407
G1 F1200 X135.548 Y159.873 E44.00429
G0 F6000 X135.548 Y159.307
G1 F1200 X141.648 Y165.407 E44.29122
G0 F6000 X142.214 Y165.407
G1 F1200 X135.548 Y158.741 E44.60476
G0 F6000 X135.548 Y158.176
G1 F1200 X142.779 Y165.407 E44.94489
G0 F6000 X143.345 Y165.407
G1 F1200 X135.548 Y157.61 E45.31164
G0 F6000 X135.548 Y157.044
G1 F1200 X143.911 Y165.407 E45.70501
G0 F6000 X144.476 Y165.407
G1 F1200 X135.548 Y156.479 E46.12495
G0 F6000 X135.548 Y155.913
G1 F1200 X145.042 Y165.407 E46.57152
G0 F6000 X145.608 Y165.407
