;FLAVOR:Marlin
;TIME:3472
;Filament used: 2.19266m
;Layer height: 0.2
;MINX:83
;MINY:79.042
;MINZ:0.2
;MAXX:137
;MAXY:140.958
;MAXZ:15
;Generated with Cura_SteamEngine 4.4.1
M140 S60
M105
M190 S60
M104 S200
M105
M109 S200
M82 ;absolute extrusion mode
M201 X500.00 Y500.00 Z100.00 E5000.00 ;Setup machine max acceleration
M203 X500.00 Y500.00 Z10.00 E50.00 ;Setup machine max feedrate
M204 P500.00 R1000.00 T500.00 ;Setup Print/Retract/Travel acceleration
M205 X8.00 Y8.00 Z0.40 E5.00 ;Setup Jerk
M220 S100 ;Reset Feedrate
M221 S100 ;Reset Flowrate

G28 ;Home

G92 E0 ;Reset Extruder
G1 Z2.0 F3000 ;Move Z Axis up
G1 X10.1 Y20 Z0.28 F5000.0 ;Move to start position
G1 X10.1 Y200.0 Z0.28 F1500.0 E15 ;Draw the first line
G1 X10.4 Y200.0 Z0.28 F5000.0 ;Move to side a little
G1 X10.4 Y20 Z0.28 F1500.0 E30 ;Draw the second line
G92 E0 ;Reset Extruder
G1 Z2.0 F3000 ;Move Z Axis up

G92 E0
G92 E0
G1 F1500 E-6.5
;LAYER_COUNT:75
;LAYER:0
M107
G0 F6000 X86.198 Y82.306 Z0.2
;TYPE:SKIRT
G1 F1500 E0
G1 F1200 X86.886 Y81.669 E0.03119
G1 X87.626 Y81.093 E0.06237
G1 X88.412 Y80.581 E0.09357
G1 X89.239 Y80.139 E0.12476
G1 X90.101 Y79.769 E0.15596
G1 X90.991 Y79.473 E0.18716
G1 X91.903 Y79.255 E0.21835
G1 X92.83 Y79.114 E0.24953
G1 X93.701 Y79.055 E0.27857
G1 X94.022 Y79.046 E0.28925
G1 X94.33 Y79.042 E0.29949
G1 X101.286 Y79.042 E0.53085
G1 X101.443 Y79.043 E0.53607
G1 X102.142 Y79.053 E0.55933
G1 X102.763 Y79.08 E0.58
G1 X103.626 Y79.141 E0.60877
G1 X106.226 Y79.288 E0.69539
G1 X108.721 Y79.36 E0.77841
G1 X111.246 Y79.36 E0.86239
G1 X113.796 Y79.289 E0.94724
G1 X116.334 Y79.145 E1.03179
G1 X117.201 Y79.081 E1.0607
G1 X117.701 Y79.055 E1.07735
G1 X118.021 Y79.046 E1.088
G1 X118.33 Y79.042 E1.09828
G1 X125.286 Y79.042 E1.32964
G1 X125.446 Y79.043 E1.33496
G1 X126.133 Y79.053 E1.35781
G1 X127.069 Y79.107 E1.38899
G1 X127.998 Y79.24 E1.42021
G1 X128.911 Y79.452 E1.45138
G1 X129.804 Y79.741 E1.4826
G1 X130.668 Y80.104 E1.51377
G1 X131.498 Y80.54 E1.54495
G1 X132.289 Y81.046 E1.57618
G1 X133.033 Y81.616 E1.60736
G1 X133.726 Y82.248 E1.63855
G1 X134.362 Y82.937 E1.66974
G1 X134.938 Y83.678 E1.70095
G1 X135.448 Y84.465 E1.73215
G1 X135.89 Y85.292 E1.76333
G1 X136.259 Y86.154 E1.79452
G1 X136.554 Y87.044 E1.82571
G1 X136.772 Y87.957 E1.85693
G1 X136.911 Y88.884 E1.8881
G1 X136.97 Y89.789 E1.91827
G1 X136.994 Y90.793 E1.95167
G1 X136.997 Y91.021 E1.95925
G1 X137 Y91.965 E1.99065
G1 X137 Y129.222 E3.22982
G1 X136.999 Y129.373 E3.23485
G1 X136.989 Y130.1 E3.25903
G1 X136.936 Y131.037 E3.29024
G1 X136.804 Y131.965 E3.32142
G1 X136.593 Y132.879 E3.35262
G1 X136.304 Y133.771 E3.38381
G1 X135.941 Y134.636 E3.41501
G1 X135.506 Y135.467 E3.4462
G1 X135.001 Y136.257 E3.47739
G1 X134.431 Y137.002 E3.50859
G1 X133.8 Y137.696 E3.53978
G1 X133.111 Y138.333 E3.57099
G1 X132.371 Y138.909 E3.60218
G1 X131.585 Y139.42 E3.63337
G1 X130.758 Y139.862 E3.66455
G1 X129.896 Y140.232 E3.69575
G1 X129.006 Y140.527 E3.72694
G1 X128.094 Y140.746 E3.75813
G1 X127.167 Y140.886 E3.78932
G1 X126.299 Y140.945 E3.81825
G1 X125.979 Y140.954 E3.8289
G1 X125.67 Y140.958 E3.83918
G1 X118.707 Y140.958 E4.07077
G1 X118.551 Y140.957 E4.07596
G1 X117.846 Y140.947 E4.09941
G1 X117.232 Y140.921 E4.11985
G1 X116.308 Y140.856 E4.15066
G1 X113.768 Y140.712 E4.23527
G1 X111.218 Y140.641 E4.32012
G1 X108.693 Y140.641 E4.4041
G1 X106.198 Y140.713 E4.48712
G1 X103.614 Y140.859 E4.5732
G1 X102.796 Y140.919 E4.60048
G1 X102.299 Y140.945 E4.61703
G1 X101.979 Y140.954 E4.62768
G1 X101.67 Y140.958 E4.63796
G1 X94.707 Y140.958 E4.86955
G1 X94.549 Y140.957 E4.8748
G1 X93.851 Y140.947 E4.89802
G1 X92.915 Y140.893 E4.92921
G1 X91.987 Y140.761 E4.96038
G1 X91.073 Y140.549 E4.99159
G1 X90.181 Y140.26 E5.02278
G1 X89.316 Y139.897 E5.05398
G1 X88.486 Y139.461 E5.08516
G1 X87.695 Y138.956 E5.11637
G1 X86.951 Y138.385 E5.14757
G1 X86.258 Y137.753 E5.17876
G1 X85.621 Y137.065 E5.20995
G1 X85.046 Y136.324 E5.24114
G1 X84.535 Y135.538 E5.27232
G1 X84.093 Y134.71 E5.30354
G1 X83.724 Y133.848 E5.33473
G1 X83.429 Y132.958 E5.36591
G1 X83.211 Y132.046 E5.3971
G1 X83.071 Y131.118 E5.42831
G1 X83.013 Y130.246 E5.45738
G1 X83.004 Y129.914 E5.46843
G1 X83 Y129.616 E5.47834
G1 X83 Y90.716 E6.77216
G1 X83.001 Y90.567 E6.77712
G1 X83.01 Y89.902 E6.79924
G1 X83.063 Y88.966 E6.83042
G1 X83.195 Y88.037 E6.86163
G1 X83.406 Y87.123 E6.89283
G1 X83.694 Y86.231 E6.924
G1 X84.057 Y85.366 E6.9552
G1 X84.492 Y84.535 E6.9864
G1 X84.996 Y83.745 E7.01757
G1 X85.566 Y83 E7.04877
G1 X86.198 Y82.306 E7.07999
G0 F6000 X86.589 Y82.481
G1 F1200 X87.274 Y81.865 E7.11063
G1 X88.01 Y81.312 E7.14124
G1 X88.791 Y80.824 E7.17188
G1 X89.611 Y80.406 E7.20249
G1 X90.465 Y80.061 E7.23312
G1 X91.345 Y79.791 E7.26374
G1 X92.245 Y79.599 E7.29435
G1 X93.159 Y79.485 E7.32498
G1 X93.712 Y79.455 E7.3434
G1 X94.033 Y79.446 E7.35408
G1 X94.33 Y79.442 E7.36396
G1 X101.286 Y79.442 E7.59532
G1 X101.438 Y79.443 E7.60037
G1 X102.137 Y79.453 E7.62362
G1 X102.735 Y79.479 E7.64353
G1 X103.575 Y79.539 E7.67154
G1 X106.193 Y79.687 E7.75876
G1 X108.745 Y79.76 E7.84367
G1 X111.257 Y79.76 E7.92722
G1 X113.794 Y79.689 E8.01163
G1 X116.386 Y79.542 E8.09798
G1 X117.23 Y79.48 E8.12613
G1 X117.712 Y79.455 E8.14218
G1 X118.032 Y79.446 E8.15283
G1 X118.33 Y79.442 E8.16274
G1 X125.286 Y79.442 E8.3941
G1 X125.44 Y79.443 E8.39922
G1 X126.127 Y79.453 E8.42208
G1 X127.046 Y79.506 E8.45269
G1 X127.957 Y79.639 E8.48331
G1 X128.853 Y79.851 E8.51394
G1 X129.728 Y80.139 E8.54458
G1 X130.574 Y80.502 E8.57519
G1 X131.385 Y80.938 E8.60582
G1 X132.155 Y81.442 E8.63643
G1 X132.879 Y82.011 E8.66706
G1 X133.551 Y82.64 E8.69767
G1 X134.166 Y83.326 E8.72831
G1 X134.718 Y84.062 E8.75891
G1 X135.205 Y84.843 E8.78952
G1 X135.622 Y85.664 E8.82015
G1 X135.967 Y86.518 E8.85079
G1 X136.235 Y87.398 E8.88138
G1 X136.427 Y88.299 E8.91202
G1 X136.54 Y89.213 E8.94265
G1 X136.57 Y89.799 E8.96217
G1 X136.594 Y90.803 E8.99557
G1 X136.597 Y91.022 E9.00286
G1 X136.6 Y91.966 E9.03425
G1 X136.6 Y129.222 E10.27339
G1 X136.599 Y129.368 E10.27825
G1 X136.589 Y130.095 E10.30243
G1 X136.536 Y131.014 E10.33305
G1 X136.404 Y131.925 E10.36367
G1 X136.193 Y132.821 E10.39428
G1 X135.906 Y133.696 E10.42491
G1 X135.543 Y134.542 E10.45553
G1 X135.109 Y135.354 E10.48615
G1 X134.605 Y136.125 E10.51679
G1 X134.037 Y136.849 E10.5474
G1 X133.408 Y137.521 E10.57801
G1 X132.723 Y138.136 E10.60863
G1 X131.987 Y138.689 E10.63925
G1 X131.206 Y139.177 E10.66988
G1 X130.386 Y139.595 E10.70049
G1 X129.532 Y139.94 E10.73112
G1 X128.652 Y140.209 E10.76173
G1 X127.751 Y140.402 E10.79238
G1 X126.838 Y140.515 E10.82298
G1 X126.288 Y140.545 E10.8413
G1 X125.968 Y140.554 E10.85194
G1 X125.67 Y140.558 E10.86186
G1 X118.707 Y140.558 E11.09345
G1 X118.557 Y140.557 E11.09843
G1 X117.852 Y140.547 E11.12189
G1 X117.26 Y140.522 E11.14159
G1 X116.362 Y140.459 E11.17153
G1 X113.766 Y140.312 E11.25802
G1 X111.229 Y140.241 E11.34243
G1 X108.717 Y140.241 E11.42598
G1 X106.165 Y140.314 E11.51089
G1 X103.621 Y140.458 E11.59564
G1 X102.767 Y140.521 E11.62412
G1 X102.288 Y140.545 E11.64008
G1 X101.968 Y140.554 E11.65072
G1 X101.67 Y140.558 E11.66064
G1 X94.707 Y140.558 E11.89223
G1 X94.555 Y140.557 E11.89728
G1 X93.857 Y140.547 E11.9205
G1 X92.938 Y140.494 E11.95112
G1 X92.027 Y140.361 E11.98174
G1 X91.131 Y140.15 E12.01235
G1 X90.257 Y139.862 E12.04296
G1 X89.41 Y139.499 E12.07361
G1 X88.599 Y139.064 E12.10422
G1 X87.829 Y138.56 E12.13483
G1 X87.105 Y137.991 E12.16546
G1 X86.433 Y137.361 E12.19609
G1 X85.818 Y136.676 E12.22671
G1 X85.265 Y135.94 E12.25733
G1 X84.778 Y135.159 E12.28794
G1 X84.361 Y134.338 E12.31857
G1 X84.016 Y133.484 E12.3492
G1 X83.747 Y132.604 E12.37981
G1 X83.555 Y131.703 E12.41045
G1 X83.442 Y130.79 E12.44105
G1 X83.413 Y130.235 E12.45953
G1 X83.404 Y129.903 E12.47058
G1 X83.4 Y129.616 E12.48013
G1 X83.4 Y90.716 E13.77394
G1 X83.401 Y90.573 E13.7787
G1 X83.41 Y89.908 E13.80082
G1 X83.462 Y88.988 E13.83147
G1 X83.594 Y88.077 E13.86209
G1 X83.805 Y87.181 E13.8927
G1 X84.092 Y86.306 E13.92333
G1 X84.455 Y85.46 E13.95395
G1 X84.889 Y84.648 E13.98457
G1 X85.392 Y83.877 E14.01519
G1 X85.961 Y83.153 E14.04582
G1 X86.589 Y82.481 E14.07641
G0 F6000 X86.981 Y82.659
G1 F1200 X87.662 Y82.066 E14.10644
G1 X88.394 Y81.536 E14.1365
G1 X89.169 Y81.073 E14.16653
G1 X89.982 Y80.68 E14.19656
G1 X90.827 Y80.36 E14.22661
G1 X91.696 Y80.117 E14.25663
G1 X92.584 Y79.951 E14.28667
G1 X93.723 Y79.855 E14.32469
G1 X94.044 Y79.846 E14.33537
G1 X94.33 Y79.842 E14.34488
G1 X101.286 Y79.842 E14.57624
G1 X101.432 Y79.843 E14.5811
G1 X102.131 Y79.853 E14.60435
G1 X102.706 Y79.878 E14.62349
G1 X103.522 Y79.936 E14.6507
G1 X106.194 Y80.087 E14.73971
G1 X108.733 Y80.16 E14.8242
G1 X111.268 Y80.16 E14.90851
G1 X113.794 Y80.089 E14.99256
G1 X116.44 Y79.94 E15.0807
G1 X117.26 Y79.879 E15.10805
G1 X117.723 Y79.855 E15.12347
G1 X118.043 Y79.846 E15.13412
G1 X118.33 Y79.842 E15.14367
G1 X125.286 Y79.842 E15.37502
G1 X125.434 Y79.843 E15.37995
G1 X126.121 Y79.853 E15.4028
G1 X127.023 Y79.906 E15.43285
G1 X127.916 Y80.039 E15.46288
G1 X128.794 Y80.25 E15.49291
G1 X129.65 Y80.538 E15.52295
G1 X130.477 Y80.901 E15.55299
G1 X131.269 Y81.335 E15.58303
G1 X132.02 Y81.837 E15.61307
G1 X132.723 Y82.405 E15.64313
G1 X133.372 Y83.031 E15.67313
G1 X133.964 Y83.714 E15.70319
G1 X134.494 Y84.445 E15.73322
G1 X134.956 Y85.221 E15.76326
G1 X135.348 Y86.034 E15.79328
G1 X135.667 Y86.879 E15.82332
G1 X135.91 Y87.749 E15.85336
G1 X136.074 Y88.637 E15.8834
G1 X136.17 Y89.808 E15.92247
G1 X136.194 Y90.812 E15.95588
G1 X136.197 Y91.024 E15.96293
G1 X136.2 Y91.968 E15.99433
G1 X136.2 Y129.222 E17.2334
G1 X136.199 Y129.362 E17.23806
G1 X136.189 Y130.089 E17.26224
G1 X136.137 Y130.991 E17.29229
G1 X136.005 Y131.884 E17.32231
G1 X135.794 Y132.763 E17.35238
G1 X135.507 Y133.619 E17.38241
G1 X135.145 Y134.446 E17.41243
G1 X134.711 Y135.238 E17.44247
G1 X134.209 Y135.989 E17.47252
G1 X133.643 Y136.692 E17.50253
G1 X133.016 Y137.343 E17.5326
G1 X132.335 Y137.935 E17.56261
G1 X131.604 Y138.465 E17.59264
G1 X130.828 Y138.928 E17.62269
G1 X130.015 Y139.321 E17.65273
G1 X129.17 Y139.641 E17.68278
G1 X128.301 Y139.884 E17.71279
G1 X127.413 Y140.049 E17.74283
G1 X126.277 Y140.145 E17.78075
G1 X125.957 Y140.154 E17.7914
G1 X125.67 Y140.158 E17.80095
G1 X118.707 Y140.158 E18.03254
G1 X118.562 Y140.157 E18.03736
G1 X117.857 Y140.147 E18.06081
G1 X117.288 Y140.123 E18.07975
G1 X116.411 Y140.061 E18.10899
G1 X113.766 Y139.912 E18.19711
G1 X111.24 Y139.841 E18.28115
G1 X108.705 Y139.841 E18.36547
G1 X106.166 Y139.914 E18.44995
G1 X103.568 Y140.061 E18.5365
G1 X102.737 Y140.122 E18.56421
G1 X102.277 Y140.145 E18.57953
G1 X101.957 Y140.154 E18.59018
G1 X101.67 Y140.158 E18.59973
G1 X94.707 Y140.158 E18.83132
G1 X94.561 Y140.157 E18.83617
G1 X93.863 Y140.147 E18.85939
G1 X92.961 Y140.094 E18.88944
G1 X92.068 Y139.962 E18.91947
G1 X91.19 Y139.751 E18.9495
G1 X90.334 Y139.463 E18.97954
G1 X89.507 Y139.101 E19.00956
G1 X88.715 Y138.666 E19.03962
G1 X87.964 Y138.164 E19.06966
G1 X87.261 Y137.597 E19.0997
G1 X86.611 Y136.97 E19.12974
G1 X86.019 Y136.288 E19.15978
G1 X85.489 Y135.557 E19.18981
G1 X85.027 Y134.781 E19.21985
G1 X84.634 Y133.968 E19.24988
G1 X84.316 Y133.123 E19.27991
G1 X84.073 Y132.253 E19.30995
G1 X83.908 Y131.365 E19.33999
G1 X83.813 Y130.224 E19.37808
G1 X83.804 Y129.892 E19.38912
G1 X83.8 Y129.616 E19.3983
G1 X83.8 Y90.716 E20.69212
G1 X83.801 Y90.578 E20.69671
G1 X83.81 Y89.913 E20.71883
G1 X83.862 Y89.011 E20.74888
G1 X83.994 Y88.118 E20.77891
G1 X84.204 Y87.24 E20.80893
G1 X84.491 Y86.383 E20.83899
G1 X84.853 Y85.556 E20.86902
G1 X85.286 Y84.764 E20.89904
G1 X85.788 Y84.013 E20.92908
G1 X86.355 Y83.309 E20.95915
G1 X86.981 Y82.659 E20.98916
G1 F1500 E14.48916
;MESH:support_1_matrix_sans_base_repaired_by_netfabb.stl
G0 F6000 X94.414 Y89.377
G0 X94.414 Y90.456
G0 X95.182 Y128.776
G0 X100.818 Y128.776
G0 X100.818 Y125.776
G0 X118.428 Y126.53
G0 X119 Y128.958
;TYPE:WALL-INNER
G1 F1500 E20.98916
G1 F1200 X119 Y125.958 E21.08894
G1 X101 Y125.958 E21.68763
G1 X101 Y128.958 E21.78741
G1 X95 Y128.958 E21.98697
G1 X95 Y91.042 E23.24806
G1 X100.996 Y91.042 E23.44749
G1 X101 Y92.06 E23.48135
G1 X101.001 Y95.959 E23.61103
G1 X119 Y95.959 E24.20968
G1 X119 Y91.042 E24.37322
G1 X124.996 Y91.042 E24.57265
G1 X125 Y92.06 E24.6065
G1 X125 Y128.958 E25.83374
G1 X119 Y128.958 E26.0333
G0 F6000 X118.6 Y129.358
G1 F1200 X118.6 Y126.358 E26.13308
G1 X101.4 Y126.358 E26.70515
G1 X101.4 Y129.358 E26.80493
G1 X94.6 Y129.358 E27.0311
G1 X94.6 Y90.642 E28.3188
G1 X101.395 Y90.642 E28.5448
G1 X101.4 Y92.06 E28.59197
G1 X101.401 Y95.559 E28.70834
G1 X118.6 Y95.559 E29.28038
G1 X118.6 Y90.642 E29.44392
G1 X125.395 Y90.642 E29.66993
G1 X125.4 Y92.06 E29.71709
G1 X125.4 Y129.358 E30.95763
G1 X118.6 Y129.358 E31.1838
G0 F6000 X118.2 Y129.758
;TYPE:WALL-OUTER
G1 F1200 X118.2 Y126.758 E31.28358
G1 X101.8 Y126.758 E31.82904
G1 X101.8 Y129.758 E31.92882
G1 X94.2 Y129.758 E32.1816
G1 X94.2 Y90.242 E33.49591
G1 X101.794 Y90.242 E33.74849
G1 X101.8 Y92.06 E33.80895
G1 X101.801 Y95.159 E33.91203
G1 X118.2 Y95.159 E34.45746
G1 X118.2 Y90.242 E34.621
G1 X125.794 Y90.242 E34.87358
G1 X125.8 Y92.06 E34.93404
G1 X125.8 Y129.758 E36.18788
G1 X118.2 Y129.758 E36.44066
G0 F6000 X118.47 Y129.488
G0 X119.11 Y128.568
G0 X119.39 Y128.568
;TYPE:SKIN
G1 F1200 X119.39 Y125.568 E36.54044
G1 X100.61 Y125.568 E37.16507
G1 X100.61 Y128.568 E37.26485
G1 X95.39 Y128.568 E37.43847
G1 X95.39 Y91.432 E38.67361
G1 X100.608 Y91.432 E38.84716
G1 X100.61 Y92.062 E38.86812
G1 X100.613 Y96.349 E39.01071
G1 X119.39 Y96.349 E39.63523
G1 X119.39 Y91.432 E39.79877
G1 X124.608 Y91.432 E39.97232
G1 X124.61 Y92.062 E39.99328
G1 X124.61 Y128.568 E41.20747
G1 X119.39 Y128.568 E41.38109
G0 F6000 X119.11 Y128.568
G0 X118.428 Y126.53
G0 X101.572 Y126.53
G0 X101.559 Y128.781
G0 X96.163 Y128.848
G0 X96.163 Y128.407
G1 F1200 X95.549 Y127.793 E41.40997
G0 F6000 X95.549 Y127.227
G1 F1200 X96.729 Y128.407 E41.46547
G0 F6000 X97.295 Y128.407
G1 F1200 X95.549 Y126.661 E41.5476
G0 F6000 X95.549 Y126.096
G1 F1200 X97.86 Y128.407 E41.6563
G0 F6000 X98.426 Y128.407
G1 F1200 X95.549 Y125.53 E41.79163
G0 F6000 X95.549 Y124.964
G1 F1200 X98.992 Y128.407 E41.95357
G0 F6000 X99.557 Y128.407
G1 F1200 X95.549 Y124.399 E42.1421
G0 F6000 X95.549 Y123.833
G1 F1200 X100.123 Y128.407 E42.35725
G0 F6000 X100.45 Y128.168
G1 F1200 X95.549 Y123.267 E42.58777
G0 F6000 X95.549 Y122.702
G1 F1200 X100.45 Y127.603 E42.8183
G0 F6000 X100.45 Y127.037
G1 F1200 X95.549 Y122.136 E43.04883
G0 F6000 X95.549 Y121.57
G1 F1200 X100.45 Y126.471 E43.27936
G0 F6000 X100.45 Y125.906
G1 F1200 X95.549 Y121.005 E43.50989
G0 F6000 X95.549 Y120.439
G1 F1200 X100.516 Y125.406 E43.74352
G0 F6000 X101.082 Y125.406
G1 F1200 X95.549 Y119.873 E44.00377
G0 F6000 X95.549 Y119.308
G1 F1200 X101.648 Y125.406 E44.29063
G0 F6000 X102.213 Y125.406
G1 F1200 X95.549 Y118.742 E44.60408
G0 F6000 X95.549 Y118.176
G1 F1200 X102.779 Y125.406 E44.94416
G0 F6000 X103.345 Y125.406
G1 F1200 X95.549 Y117.61 E45.31086
G0 F6000 X95.549 Y117.045
G1 F1200 X103.91 Y125.406 E45.70414
G0 F6000 X104.476 Y125.406
G1 F1200 X95.549 Y116.479 E46.12403
G0 F6000 X95.549 Y115.913
G1 F1200 X105.042 Y125.406 E46.57056
G0 F6000 X105.607 Y125.406
G1 F1200 X95.549 Y115.348 E47.04365
G0 F6000 X95.549 Y114.782
G1 F1200 X106.173 Y125.406 E47.54337
G0 F6000 X106.739 Y125.406
G1 F1200 X95.549 Y114.216 E48.06972
G0 F6000 X95.549 Y113.651
G1 F1200 X107.304 Y125.406 E48.62264
G0 F6000 X107.87 Y125.406
G1 F1200 X95.549 Y113.085 E49.20218
G0 F6000 X95.549 Y112.519
G1 F1200 X108.436 Y125.406 E49.80834
G0 F6000 X109.001 Y125.406
