;FLAVOR:Marlin
;TIME:10143
;Filament used: 7.02546m
;Layer height: 0.2
;MINX:70
;MINY:66
;MINZ:0.2
;MAXX:150
;MAXY:154
;MAXZ:33
;Generated with Cura_SteamEngine 4.4.1
M140 S60
M105
M190 S60
M104 S200
M105
M109 S200
M82 ;absolute extrusion mode
M201 X500.00 Y500.00 Z100.00 E5000.00 ;Setup machine max acceleration
M203 X500.00 Y500.00 Z10.00 E50.00 ;Setup machine max feedrate
M204 P500.00 R1000.00 T500.00 ;Setup Print/Retract/Travel acceleration
M205 X8.00 Y8.00 Z0.40 E5.00 ;Setup Jerk
M220 S100 ;Reset Feedrate
M221 S100 ;Reset Flowrate

G28 ;Home

G92 E0 ;Reset Extruder
G1 Z2.0 F3000 ;Move Z Axis up
G1 X10.1 Y20 Z0.28 F5000.0 ;Move to start position
G1 X10.1 Y200.0 Z0.28 F1500.0 E15 ;Draw the first line
G1 X10.4 Y200.0 Z0.28 F5000.0 ;Move to side a little
G1 X10.4 Y20 Z0.28 F1500.0 E30 ;Draw the second line
G92 E0 ;Reset Extruder
G1 Z2.0 F3000 ;Move Z Axis up

G92 E0
G92 E0
G1 F1500 E-6.5
;LAYER_COUNT:165
;LAYER:0
M107
G0 F6000 X73.198 Y69.264 Z0.2
;TYPE:SKIRT
G1 F1500 E0
G1 F1200 X73.886 Y68.627 E0.03119
G1 X74.626 Y68.051 E0.06237
G1 X75.412 Y67.539 E0.09357
G1 X76.239 Y67.097 E0.12476
G1 X77.101 Y66.727 E0.15596
G1 X77.991 Y66.431 E0.18716
G1 X78.903 Y66.213 E0.21835
G1 X79.83 Y66.072 E0.24953
G1 X80.701 Y66.013 E0.27857
G1 X81.022 Y66.004 E0.28925
G1 X81.33 Y66 E0.29949
G1 X138.293 Y66 E2.19409
G1 X138.451 Y66.001 E2.19935
G1 X139.149 Y66.011 E2.22256
G1 X140.085 Y66.065 E2.25375
G1 X141.013 Y66.197 E2.28492
G1 X141.927 Y66.409 E2.31613
G1 X142.819 Y66.698 E2.34732
G1 X143.684 Y67.061 E2.37852
G1 X144.514 Y67.497 E2.4097
G1 X145.305 Y68.002 E2.44091
G1 X146.049 Y68.573 E2.47211
G1 X146.742 Y69.205 E2.5033
G1 X147.379 Y69.893 E2.53449
G1 X147.954 Y70.634 E2.56568
G1 X148.465 Y71.42 E2.59686
G1 X148.907 Y72.248 E2.62808
G1 X149.276 Y73.11 E2.65927
G1 X149.571 Y74 E2.69045
G1 X149.789 Y74.912 E2.72164
G1 X149.929 Y75.84 E2.75286
G1 X149.987 Y76.701 E2.78156
G1 X149.996 Y77.021 E2.79221
G1 X150 Y77.33 E2.80248
G1 X150 Y142.264 E4.9622
G1 X149.999 Y142.4 E4.96672
G1 X149.99 Y143.127 E4.9909
G1 X149.939 Y144.064 E5.02211
G1 X149.807 Y144.992 E5.05329
G1 X149.598 Y145.906 E5.08447
G1 X149.311 Y146.799 E5.11567
G1 X148.949 Y147.665 E5.14689
G1 X148.515 Y148.496 E5.17807
G1 X148.011 Y149.287 E5.20927
G1 X147.442 Y150.032 E5.24045
G1 X146.811 Y150.727 E5.27167
G1 X146.124 Y151.365 E5.30285
G1 X145.385 Y151.942 E5.33404
G1 X144.599 Y152.454 E5.36524
G1 X143.773 Y152.897 E5.39641
G1 X142.911 Y153.269 E5.42764
G1 X142.022 Y153.565 E5.4588
G1 X141.11 Y153.785 E5.49
G1 X140.183 Y153.926 E5.52119
G1 X139.299 Y153.987 E5.55066
G1 X138.978 Y153.996 E5.56134
G1 X138.67 Y154 E5.57159
G1 X81.707 Y154 E7.46618
G1 X81.565 Y153.999 E7.47091
G1 X80.867 Y153.99 E7.49413
G1 X79.931 Y153.938 E7.52531
G1 X79.002 Y153.806 E7.55651
G1 X78.088 Y153.596 E7.58771
G1 X77.195 Y153.309 E7.6189
G1 X76.33 Y152.946 E7.6501
G1 X75.499 Y152.512 E7.68129
G1 X74.708 Y152.008 E7.71248
G1 X73.963 Y151.438 E7.74368
G1 X73.269 Y150.807 E7.77488
G1 X72.632 Y150.12 E7.80604
G1 X72.055 Y149.38 E7.83725
G1 X71.543 Y148.594 E7.86845
G1 X71.1 Y147.767 E7.89965
G1 X70.729 Y146.906 E7.93083
G1 X70.433 Y146.016 E7.96203
G1 X70.214 Y145.104 E7.99323
G1 X70.073 Y144.177 E8.02441
G1 X70.013 Y143.288 E8.05405
G1 X70.004 Y142.955 E8.06513
G1 X70 Y142.658 E8.07501
G1 X70 Y77.674 E10.23638
G1 X70.001 Y77.525 E10.24134
G1 X70.01 Y76.86 E10.26346
G1 X70.063 Y75.924 E10.29464
G1 X70.195 Y74.995 E10.32585
G1 X70.406 Y74.081 E10.35705
G1 X70.694 Y73.189 E10.38823
G1 X71.057 Y72.324 E10.41943
G1 X71.492 Y71.493 E10.45062
G1 X71.996 Y70.703 E10.48179
G1 X72.566 Y69.958 E10.51299
G1 X73.198 Y69.264 E10.54421
G0 F6000 X73.589 Y69.439
G1 F1200 X74.274 Y68.823 E10.57485
G1 X75.01 Y68.27 E10.60547
G1 X75.791 Y67.782 E10.6361
G1 X76.611 Y67.364 E10.66671
G1 X77.465 Y67.019 E10.69735
G1 X78.345 Y66.749 E10.72796
G1 X79.245 Y66.557 E10.75857
G1 X80.159 Y66.443 E10.7892
G1 X80.712 Y66.413 E10.80762
G1 X81.033 Y66.404 E10.81831
G1 X81.33 Y66.4 E10.82818
G1 X138.293 Y66.4 E12.72278
G1 X138.445 Y66.401 E12.72784
G1 X139.143 Y66.411 E12.75105
G1 X140.062 Y66.464 E12.78167
G1 X140.973 Y66.597 E12.81229
G1 X141.869 Y66.808 E12.84291
G1 X142.743 Y67.096 E12.87352
G1 X143.59 Y67.459 E12.90417
G1 X144.401 Y67.894 E12.93477
G1 X145.171 Y68.398 E12.96538
G1 X145.895 Y68.967 E12.99601
G1 X146.567 Y69.597 E13.02665
G1 X147.182 Y70.282 E13.05727
G1 X147.735 Y71.018 E13.08789
G1 X148.222 Y71.799 E13.1185
G1 X148.639 Y72.62 E13.14912
G1 X148.984 Y73.474 E13.17976
G1 X149.253 Y74.354 E13.21036
G1 X149.445 Y75.255 E13.24101
G1 X149.558 Y76.168 E13.2716
G1 X149.587 Y76.712 E13.28972
G1 X149.596 Y77.032 E13.30037
G1 X149.6 Y77.33 E13.31028
G1 X149.6 Y142.264 E15.47
G1 X149.599 Y142.395 E15.47435
G1 X149.59 Y143.122 E15.49854
G1 X149.539 Y144.041 E15.52915
G1 X149.408 Y144.953 E15.55979
G1 X149.198 Y145.849 E15.5904
G1 X148.912 Y146.724 E15.62102
G1 X148.551 Y147.571 E15.65164
G1 X148.117 Y148.383 E15.68227
G1 X147.615 Y149.155 E15.71289
G1 X147.047 Y149.88 E15.74353
G1 X146.419 Y150.553 E15.77414
G1 X145.735 Y151.169 E15.80476
G1 X145 Y151.723 E15.83537
G1 X144.22 Y152.212 E15.86599
G1 X143.4 Y152.631 E15.89662
G1 X142.547 Y152.977 E15.92723
G1 X141.667 Y153.248 E15.95786
G1 X140.767 Y153.441 E15.98847
G1 X139.853 Y153.556 E16.01911
G1 X139.288 Y153.587 E16.03793
G1 X138.967 Y153.596 E16.04861
G1 X138.67 Y153.6 E16.05849
G1 X81.707 Y153.6 E17.95309
G1 X81.57 Y153.599 E17.95765
G1 X80.872 Y153.59 E17.98086
G1 X79.953 Y153.538 E18.01148
G1 X79.042 Y153.407 E18.04209
G1 X78.146 Y153.197 E18.0727
G1 X77.271 Y152.91 E18.10333
G1 X76.424 Y152.548 E18.13396
G1 X75.612 Y152.114 E18.16459
G1 X74.841 Y151.612 E18.19519
G1 X74.116 Y151.044 E18.22582
G1 X73.443 Y150.415 E18.25646
G1 X72.828 Y149.731 E18.28705
G1 X72.274 Y148.996 E18.31766
G1 X71.786 Y148.215 E18.34829
G1 X71.367 Y147.395 E18.37892
G1 X71.021 Y146.542 E18.40954
G1 X70.751 Y145.662 E18.44015
G1 X70.558 Y144.761 E18.4708
G1 X70.444 Y143.848 E18.5014
G1 X70.413 Y143.277 E18.52042
G1 X70.404 Y142.944 E18.5315
G1 X70.4 Y142.658 E18.54102
G1 X70.4 Y77.674 E20.70239
G1 X70.401 Y77.531 E20.70715
G1 X70.41 Y76.866 E20.72927
G1 X70.462 Y75.946 E20.75992
G1 X70.594 Y75.035 E20.79053
G1 X70.805 Y74.139 E20.82115
G1 X71.092 Y73.264 E20.85178
G1 X71.455 Y72.418 E20.8824
G1 X71.889 Y71.606 E20.91302
G1 X72.392 Y70.835 E20.94364
G1 X72.961 Y70.111 E20.97427
G1 X73.589 Y69.439 E21.00486
G0 F6000 X73.981 Y69.617
G1 F1200 X74.662 Y69.024 E21.03489
G1 X75.394 Y68.494 E21.06495
G1 X76.169 Y68.031 E21.09497
G1 X76.982 Y67.638 E21.12501
G1 X77.827 Y67.318 E21.15506
G1 X78.696 Y67.075 E21.18507
G1 X79.584 Y66.909 E21.21512
G1 X80.723 Y66.813 E21.25314
G1 X81.044 Y66.804 E21.26382
G1 X81.33 Y66.8 E21.27333
G1 X138.293 Y66.8 E23.16793
G1 X138.439 Y66.801 E23.17278
G1 X139.137 Y66.811 E23.196
G1 X140.039 Y66.864 E23.22606
G1 X140.932 Y66.996 E23.25608
G1 X141.81 Y67.207 E23.28611
G1 X142.666 Y67.495 E23.31615
G1 X143.493 Y67.857 E23.34618
G1 X144.285 Y68.292 E23.37623
G1 X145.036 Y68.794 E23.40628
G1 X145.739 Y69.361 E23.43632
G1 X146.389 Y69.988 E23.46635
G1 X146.981 Y70.67 E23.49639
G1 X147.511 Y71.401 E23.52642
G1 X147.973 Y72.177 E23.55646
G1 X148.366 Y72.99 E23.58649
G1 X148.684 Y73.835 E23.61652
G1 X148.927 Y74.705 E23.64657
G1 X149.092 Y75.593 E23.67661
G1 X149.187 Y76.723 E23.71432
G1 X149.196 Y77.043 E23.72497
G1 X149.2 Y77.33 E23.73452
G1 X149.2 Y142.264 E25.89423
G1 X149.199 Y142.39 E25.89842
G1 X149.19 Y143.117 E25.9226
G1 X149.139 Y144.019 E25.95265
G1 X149.008 Y144.913 E25.98271
G1 X148.799 Y145.791 E26.01272
G1 X148.513 Y146.648 E26.04277
G1 X148.152 Y147.476 E26.07282
G1 X147.72 Y148.268 E26.10282
G1 X147.219 Y149.02 E26.13288
G1 X146.653 Y149.724 E26.16292
G1 X146.028 Y150.375 E26.19294
G1 X145.347 Y150.969 E26.22299
G1 X144.616 Y151.5 E26.25304
G1 X143.842 Y151.964 E26.28306
G1 X143.029 Y152.358 E26.31311
G1 X142.185 Y152.678 E26.34313
G1 X141.315 Y152.923 E26.37319
G1 X140.428 Y153.089 E26.4032
G1 X139.277 Y153.187 E26.44162
G1 X138.956 Y153.196 E26.4523
G1 X138.67 Y153.2 E26.46182
G1 X81.707 Y153.2 E28.35641
G1 X81.575 Y153.199 E28.36081
G1 X80.877 Y153.19 E28.38402
G1 X79.976 Y153.139 E28.41404
G1 X79.082 Y153.007 E28.4441
G1 X78.204 Y152.798 E28.47411
G1 X77.347 Y152.511 E28.50417
G1 X76.52 Y152.15 E28.53419
G1 X75.727 Y151.717 E28.56424
G1 X74.976 Y151.216 E28.59426
G1 X74.272 Y150.65 E28.62431
G1 X73.621 Y150.024 E28.65435
G1 X73.028 Y149.343 E28.68438
G1 X72.498 Y148.612 E28.71441
G1 X72.034 Y147.837 E28.74445
G1 X71.64 Y147.024 E28.7745
G1 X71.32 Y146.18 E28.80452
G1 X71.076 Y145.31 E28.83458
G1 X70.91 Y144.422 E28.86462
G1 X70.813 Y143.267 E28.90318
G1 X70.804 Y142.934 E28.91425
G1 X70.8 Y142.658 E28.92344
G1 X70.8 Y77.674 E31.08481
G1 X70.801 Y77.536 E31.0894
G1 X70.81 Y76.871 E31.11152
G1 X70.862 Y75.969 E31.14157
G1 X70.994 Y75.076 E31.1716
G1 X71.204 Y74.198 E31.20162
G1 X71.491 Y73.341 E31.23168
G1 X71.853 Y72.514 E31.26171
G1 X72.286 Y71.722 E31.29173
G1 X72.788 Y70.971 E31.32178
G1 X73.355 Y70.267 E31.35184
G1 X73.981 Y69.617 E31.38186
G1 F1500 E24.88186
;MESH:supp_servo_base_v2 (repaired).stl
G0 F6000 X81.414 Y76.335
G0 X81.414 Y77.414
G0 X82 Y142
;TYPE:WALL-INNER
G1 F1500 E31.38186
G1 F1200 X82 Y78 E33.5105
G1 X138 Y78 E35.37307
G1 X138 Y142 E37.50172
G1 X82 Y142 E39.36429
G0 F6000 X81.6 Y142.4
G1 F1200 X81.6 Y77.6 E41.51954
G1 X138.4 Y77.6 E43.40872
G1 X138.4 Y142.4 E45.56398
G1 X81.6 Y142.4 E47.45315
G0 F6000 X81.2 Y142.8
;TYPE:WALL-OUTER
G1 F1200 X81.2 Y77.2 E49.63502
G1 X138.8 Y77.2 E51.5508
G1 X138.8 Y142.8 E53.73267
G1 X81.2 Y142.8 E55.64845
G0 F6000 X81.47 Y142.53
G0 X82.11 Y141.61
G0 X82.39 Y141.61
;TYPE:SKIN
G1 F1200 X82.39 Y78.39 E57.75116
G1 X137.61 Y78.39 E59.58778
G1 X137.61 Y141.61 E61.69049
G1 X82.39 Y141.61 E63.52711
G0 F6000 X82.617 Y141.448
G1 F1200 X82.549 Y141.38 E63.53031
G0 F6000 X82.549 Y140.814
G1 F1200 X83.183 Y141.448 E63.56013
G0 F6000 X83.749 Y141.448
G1 F1200 X82.549 Y140.248 E63.61657
G0 F6000 X82.549 Y139.683
G1 F1200 X84.314 Y141.448 E63.69959
G0 F6000 X84.88 Y141.448
G1 F1200 X82.549 Y139.117 E63.80924
G0 F6000 X82.549 Y138.551
G1 F1200 X85.446 Y141.448 E63.9455
G0 F6000 X86.011 Y141.448
G1 F1200 X82.549 Y137.986 E64.10835
G0 F6000 X82.549 Y137.42
G1 F1200 X86.577 Y141.448 E64.29781
G0 F6000 X87.143 Y141.448
G1 F1200 X82.549 Y136.854 E64.5139
G0 F6000 X82.549 Y136.289
G1 F1200 X87.708 Y141.448 E64.75656
G0 F6000 X88.274 Y141.448
G1 F1200 X82.549 Y135.723 E65.02585
G0 F6000 X82.549 Y135.157
G1 F1200 X88.84 Y141.448 E65.32176
G0 F6000 X89.405 Y141.448
G1 F1200 X82.549 Y134.592 E65.64424
G0 F6000 X82.549 Y134.026
G1 F1200 X89.971 Y141.448 E65.99335
G0 F6000 X90.537 Y141.448
G1 F1200 X82.549 Y133.46 E66.36908
G0 F6000 X82.549 Y132.895
G1 F1200 X91.102 Y141.448 E66.77139
G0 F6000 X91.668 Y141.448
G1 F1200 X82.549 Y132.329 E67.20032
G0 F6000 X82.549 Y131.763
G1 F1200 X92.234 Y141.448 E67.65587
G0 F6000 X92.799 Y141.448
G1 F1200 X82.549 Y131.198 E68.138
G0 F6000 X82.549 Y130.632
G1 F1200 X93.365 Y141.448 E68.64675
G0 F6000 X93.931 Y141.448
G1 F1200 X82.549 Y130.066 E69.18213
G0 F6000 X82.549 Y129.5
G1 F1200 X94.497 Y141.448 E69.74412
G0 F6000 X95.062 Y141.448
G1 F1200 X82.549 Y128.935 E70.3327
G0 F6000 X82.549 Y128.369
G1 F1200 X95.628 Y141.448 E70.94789
G0 F6000 X96.194 Y141.448
G1 F1200 X82.549 Y127.803 E71.58971
G0 F6000 X82.549 Y127.238
G1 F1200 X96.759 Y141.448 E72.25811
G0 F6000 X97.325 Y141.448
G1 F1200 X82.549 Y126.672 E72.95312
G0 F6000 X82.549 Y126.106
G1 F1200 X97.891 Y141.448 E73.67476
G0 F6000 X98.456 Y141.448
G1 F1200 X82.549 Y125.541 E74.42298
G0 F6000 X82.549 Y124.975
G1 F1200 X99.022 Y141.448 E75.19782
G0 F6000 X99.588 Y141.448
G1 F1200 X82.549 Y124.409 E75.99928
G0 F6000 X82.549 Y123.844
G1 F1200 X100.153 Y141.448 E76.82732
G0 F6000 X100.719 Y141.448
G1 F1200 X82.549 Y123.278 E77.68198
G0 F6000 X82.549 Y122.712
G1 F1200 X101.285 Y141.448 E78.56327
G0 F6000 X101.85 Y141.448
G1 F1200 X82.549 Y122.147 E79.47113
G0 F6000 X82.549 Y121.581
G1 F1200 X102.416 Y141.448 E80.40561
G0 F6000 X102.982 Y141.448
G1 F1200 X82.549 Y121.015 E81.36671
G0 F6000 X82.549 Y120.449
G1 F1200 X103.548 Y141.448 E82.35444
G0 F6000 X104.113 Y141.448
G1 F1200 X82.549 Y119.884 E83.36875
G0 F6000 X82.549 Y119.318
G1 F1200 X104.679 Y141.448 E84.40967
G0 F6000 X105.245 Y141.448
G1 F1200 X82.549 Y118.752 E85.47722
G0 F6000 X82.549 Y118.187
G1 F1200 X105.81 Y141.448 E86.57135
G0 F6000 X106.376 Y141.448
G1 F1200 X82.549 Y117.621 E87.6921
G0 F6000 X82.549 Y117.055
G1 F1200 X106.942 Y141.448 E88.83947
G0 F6000 X107.507 Y141.448
G1 F1200 X82.549 Y116.49 E90.01342
G0 F6000 X82.549 Y115.924
G1 F1200 X108.073 Y141.448 E91.21399
G0 F6000 X108.639 Y141.448
G1 F1200 X82.549 Y115.358 E92.44118
G0 F6000 X82.549 Y114.793
G1 F1200 X109.204 Y141.448 E93.69495
G0 F6000 X109.77 Y141.448
G1 F1200 X82.549 Y114.227 E94.97535
G0 F6000 X82.549 Y113.661
G1 F1200 X110.336 Y141.448 E96.28236
G0 F6000 X110.901 Y141.448
G1 F1200 X82.549 Y113.096 E97.61595
G0 F6000 X82.549 Y112.53
G1 F1200 X111.467 Y141.448 E98.97617
G0 F6000 X112.033 Y141.448
G1 F1200 X82.549 Y111.964 E100.363
G0 F6000 X82.549 Y111.399
G1 F1200 X112.598 Y141.448 E101.77642
G0 F6000 X113.164 Y141.448
G1 F1200 X82.549 Y110.833 E103.21645
G0 F6000 X82.549 Y110.267
G1 F1200 X113.73 Y141.448 E104.68311
G0 F6000 X114.296 Y141.448
G1 F1200 X82.549 Y109.701 E106.17639
G0 F6000 X82.549 Y109.136
G1 F1200 X114.861 Y141.448 E107.69625
G0 F6000 X115.427 Y141.448
G1 F1200 X82.549 Y108.57 E109.24273
G0 F6000 X82.549 Y108.004
G1 F1200 X115.993 Y141.448 E110.81583
G0 F6000 X116.558 Y141.448
G1 F1200 X82.549 Y107.439 E112.41551
G0 F6000 X82.549 Y106.873
G1 F1200 X117.124 Y141.448 E114.04181
G0 F6000 X117.69 Y141.448
G1 F1200 X82.549 Y106.307 E115.69474
G0 F6000 X82.549 Y105.742
G1 F1200 X118.255 Y141.448 E117.37424
G0 F6000 X118.821 Y141.448
G1 F1200 X82.549 Y105.176 E119.08036
G0 F6000 X82.549 Y104.61
G1 F1200 X119.387 Y141.448 E120.81311
G0 F6000 X119.952 Y141.448
G1 F1200 X82.549 Y104.045 E122.57243
G0 F6000 X82.549 Y103.479
G1 F1200 X120.518 Y141.448 E124.35838
G0 F6000 X121.084 Y141.448
G1 F1200 X82.549 Y102.913 E126.17095
G0 F6000 X82.549 Y102.348
G1 F1200 X121.649 Y141.448 E128.01009
G0 F6000 X122.215 Y141.448
G1 F1200 X82.549 Y101.782 E129.87586
G0 F6000 X82.549 Y101.216
G1 F1200 X122.781 Y141.448 E131.76825
G0 F6000 X123.346 Y141.448
G1 F1200 X82.549 Y100.65 E133.68724
G0 F6000 X82.549 Y100.085
G1 F1200 X123.912 Y141.448 E135.63283
G0 F6000 X124.478 Y141.448
G1 F1200 X82.549 Y99.519 E137.60504
G0 F6000 X82.549 Y98.953
G1 F1200 X125.044 Y141.448 E139.60387
G0 F6000 X125.609 Y141.448
G1 F1200 X82.549 Y98.388 E141.62928
G0 F6000 X82.549 Y97.822
G1 F1200 X126.175 Y141.448 E143.68132
G0 F6000 X126.741 Y141.448
G1 F1200 X82.549 Y97.256 E145.75997
G0 F6000 X82.549 Y96.691
G1 F1200 X127.306 Y141.448 E147.8652
G0 F6000 X127.872 Y141.448
G1 F1200 X82.549 Y96.125 E149.99706
G0 F6000 X82.549 Y95.559
G1 F1200 X128.438 Y141.448 E152.15554
G0 F6000 X129.003 Y141.448
G1 F1200 X82.549 Y94.994 E154.34059
G0 F6000 X82.549 Y94.428
G1 F1200 X129.569 Y141.448 E156.55227
G0 F6000 X130.135 Y141.448
G1 F1200 X82.549 Y93.862 E158.79057
G0 F6000 X82.549 Y93.297
G1 F1200 X130.7 Y141.448 E161.05544
G0 F6000 X131.266 Y141.448
G1 F1200 X82.549 Y92.731 E163.34694
G0 F6000 X82.549 Y92.165
G1 F1200 X131.832 Y141.448 E165.66506
G0 F6000 X132.397 Y141.448
G1 F1200 X82.549 Y91.6 E168.00976
G0 F6000 X82.549 Y91.034
G1 F1200 X132.963 Y141.448 E170.38108
G0 F6000 X133.529 Y141.448
G1 F1200 X82.549 Y90.468 E172.77902
G0 F6000 X82.549 Y89.902
G1 F1200 X134.095 Y141.448 E175.20359
